X: 250
T: Xiang mama
L: 1/16
M: 2/4
K: G
d2 d2 d2 d e [I:setbarnb 1]| 
e2 d cd4 | 
B2 G2 A2 B A | 
G2 F ED4 | 
B2 B2 d2 d B | 
A2 G A d2 B2 | 
E2 D E F2 F E | 
D8 |]

@@@ Tune index: 9124
